X: 21332
T: FREE SUFFRAGE SETT (tune 5)
C:
%R: jig
B: Elias Howe "The Musician's Companion" 1843 p.133 #2
S: http://imslp.org/wiki/The_Musician's_Companion_(Howe,_Elias)
Z: 2015 John Chambers <jc:trillian.mit.edu>
M: 6/8
L: 1/8
K: D
% - - - - - - - - - - - - - - - - - - - - - - - - - - - - -
V: 1 name="5"
[|\
f2f efe | dcB AGF | GAB cde | fgf f2e |\
f2f efe | dcB AGF | GAB cde | fge d3 H|]
f2f ecA | ^GBd cBA | ecA f^ga | edc c2B |\
^gfg aec | ded cde | f^ga edc | BA^G Aa"D.C."=g |]
A2A Ace | E>FE EF^G | ABc def | edc c2B |\
A2A Ace | E>FE EF^G | Ace f^ga | Ba^g a2"^D.C."=g |]
% - - - - - - - - - - Dance description - - - - - - - - - -
%%begintext align
%% All chassa across and back,
%% all balance corners,
%% turn partners,
%% grand right and left,
%% all balance partners,
%% ladies all balance to the right,
%% all promenade,
%% gentlemen the same.
%%endtext
% - - - - - - - - - - - - - - - - - - - - - - - - - - - - -
%%sep 1 1 300

%%sep 1 1 500

